img/activities/01.svg

<svg width="72" height="64" viewBox="0 0 72 64" fill="none" xmlns="http://www.w3.org/2000/svg">
<path d="M38.6875 22.3L55.9875 37.1375C55.7875 37.25 55.5875 37.3875 55.3875 37.5125C53.1375 39.0625 50.375 40.05 47.9875 40.05C45.5375 40.05 42.8875 39.0875 40.5875 37.5125C37.825 35.575 34.1375 35.575 31.375 37.5125C29.2375 38.9875 26.625 40.05 23.975 40.05C22.7125 40.05 21.3375 39.775 19.9875 39.275C20.3875 24.15 32.775 12 48 12H56C58.2125 12 60 13.7875 60 16C60 18.2125 58.2125 20 56 20H48C44.6375 20 41.4625 20.825 38.6875 22.3ZM20 20C20 22.1217 19.1571 24.1566 17.6569 25.6569C16.1566 27.1571 14.1217 28 12 28C9.87827 28 7.84344 27.1571 6.34315 25.6569C4.84286 24.1566 4 22.1217 4 20C4 17.8783 4.84286 15.8434 6.34315 14.3431C7.84344 12.8429 9.87827 12 12 12C14.1217 12 16.1566 12.8429 17.6569 14.3431C19.1571 15.8434 20 17.8783 20 20ZM38.3125 40.7375C41.125 42.675 44.5625 44 48 44C51.3625 44 54.925 42.65 57.675 40.7375C59.1625 39.675 61.1875 39.7625 62.575 40.95C64.375 42.4375 66.6375 43.575 68.9 44.1C71.05 44.6 72.3875 46.75 71.8875 48.9C71.3875 51.05 69.2375 52.3875 67.0875 51.8875C64.025 51.175 61.475 49.825 59.8125 48.7625C56.1875 50.7125 52.125 52 48 52C44.0125 52 40.425 50.7625 37.95 49.6375C37.225 49.3 36.5625 48.975 36 48.675C35.4375 48.975 34.7875 49.3125 34.05 49.6375C31.575 50.7625 27.9875 52 24 52C19.875 52 15.8125 50.7125 12.1875 48.775C10.5125 49.825 7.975 51.1875 4.9125 51.9C2.7625 52.4 0.612502 51.0625 0.112502 48.9125C-0.387498 46.7625 0.950002 44.6125 3.1 44.1125C5.3625 43.5875 7.625 42.45 9.425 40.9625C10.8125 39.7875 12.8375 39.7 14.325 40.75C17.0875 42.65 20.6375 44 24 44C27.4375 44 30.875 42.675 33.6875 40.7375C35.075 39.75 36.925 39.75 38.3125 40.7375Z" fill="#D8AE5E"/>
</svg>

<svg xmlns="http://www.w3.org/2000/svg" width="72" height="64" fill="none"><path fill="#D8AE5E" d="M38.7 22.3 56 37.1l-.6.4C53 39.1 50.4 40 48 40c-2.5 0-5.1-1-7.4-2.5a8 8 0 0 0-9.2 0A13.4 13.4 0 0 1 24 40c-1.3 0-2.7-.2-4-.7A28 28 0 0 1 48 12h8a4 4 0 1 1 0 8h-8c-3.4 0-6.5.8-9.3 2.3ZM20 20a8 8 0 1 1-16 0 8 8 0 0 1 16 0Zm18.3 20.7c2.8 2 6.3 3.3 9.7 3.3 3.4 0 7-1.4 9.7-3.3a4 4 0 0 1 4.9.3c1.8 1.4 4 2.6 6.3 3.1a4 4 0 0 1-1.8 7.8c-3-.7-5.6-2-7.3-3.1-3.6 2-7.7 3.2-11.8 3.2a24.7 24.7 0 0 1-12-3.3A28.6 28.6 0 0 1 24 52c-4.1 0-8.2-1.3-11.8-3.2-1.7 1-4.2 2.4-7.3 3.1a4 4 0 0 1-1.8-7.8c2.3-.5 4.5-1.6 6.3-3.1a4 4 0 0 1 5-.3c2.7 2 6.2 3.3 9.6 3.3 3.4 0 6.9-1.3 9.7-3.3a4 4 0 0 1 4.6 0Z"/></svg>
